static/assets/images/icons/system.svg

<svg width="256" height="256" viewBox="0 0 256 256" fill="none" xmlns="http://www.w3.org/2000/svg">
<path d="M171.578 76.5109C163.544 19.5572 133.252 11.6874 105.745 64.9155C53.6842 42.3504 30.1429 63.851 62.1256 115.684C13.7047 151.691 28.4476 181.33 85.3215 178.696C92.2132 234.558 120.874 245.52 151.013 190.592C207.769 213.719 224.015 187.468 193.509 139.477C242.497 100.38 227.589 74.6992 171.578 76.5109ZM163.347 77.2222C153.875 78.3949 144.881 80.0047 135.978 82.3222C129.038 77.297 121.352 72.5484 113.044 68.5474C134.69 24.7399 157.801 27.6672 163.347 77.2222ZM93.406 151.243C99.2114 157.082 105.835 161.958 111.019 166.184C105.547 167.543 99.5658 168.769 93.1269 169.874C93.1071 163.662 93.2004 157.451 93.406 151.243ZM86.0976 132.34C81.5958 127.404 77.3781 122.593 73.7022 118.025C79.4812 114.475 85.1784 111.091 90.3405 108.776C88.6326 116.424 87.2249 124.283 86.0976 132.34ZM94.2502 140.422C95.7435 127.621 97.7478 115.258 100.768 103.768C111.778 99.0696 122.923 95.1203 134.212 91.9724C143.484 98.3716 152.951 106.602 162.525 115.83C161.477 125.903 159.161 137.91 156.192 150.915C145.19 155.848 133.549 159.907 121.502 163.41C112.226 156.384 103.137 148.738 94.2502 140.422ZM170.076 123.627C174.103 128.077 178.003 132.686 181.79 137.437C176.664 140.608 171.379 143.514 165.956 146.146C167.621 138.902 168.961 131.366 170.076 123.627ZM145.358 88.9598C151.68 87.6167 157.872 86.5534 163.931 85.7752C164.072 92.017 163.905 98.2613 163.431 104.485C157.574 98.9507 151.556 93.7611 145.358 88.9598ZM124.832 85.3345C117.853 87.5422 110.856 90.0725 103.841 92.8952C105.474 87.6683 107.398 82.1302 109.596 76.2989C114.749 78.9778 119.818 82.0334 124.832 85.3345ZM102.217 72.446C98.3683 80.8258 95.3963 89.163 93.2541 97.4596C84.9184 101.351 76.7427 105.926 68.6986 111.062C41.6275 68.4776 57.609 52.5022 102.217 72.446ZM84.6753 170.665C33.6403 173.355 28.0524 150.911 66.8288 122.504C72.3921 129.626 78.5596 136.673 85.0323 143.242C84.4352 152.662 84.3221 162.156 84.6753 170.665ZM93.7731 177.905C102.272 177.014 110.878 174.956 119.877 172.759C127.751 178.263 135.623 183.181 143.493 187.04C121.444 231.625 98.3945 226.614 93.7731 177.905ZM146.8 179.589C141.307 176.877 135.88 173.516 130.502 169.684C138.451 167.009 146.078 164.283 153.26 161.487C151.57 167.678 149.411 173.73 146.8 179.589ZM154.32 183.141C158.058 174.216 161.035 165.461 163.326 156.86C171.251 153.326 179.048 149.1 186.715 144.178C215.353 187.481 196.919 202.038 154.32 183.141ZM188.806 132.658C183.686 125.866 177.843 119.018 171.425 112.124C172.162 103.052 172.381 93.9433 172.083 84.8436C219.063 82.445 229.849 101.765 188.806 132.658Z" fill="black"/>
</svg>

<svg xmlns="http://www.w3.org/2000/svg" viewBox="0 0 256 256"><path d="M171.578 76.51c-8.034-56.953-38.326-64.823-65.833-11.595-52.06-22.565-75.602-1.064-43.62 50.769-48.42 36.007-33.677 65.646 23.197 63.012 6.891 55.862 35.552 66.824 65.691 11.896 56.756 23.127 73.002-3.124 42.496-51.115 48.988-39.097 34.08-64.778-21.931-62.966m-8.231.712c-9.472 1.173-18.466 2.783-27.369 5.1-6.94-5.025-14.626-9.774-22.934-13.775 21.646-43.807 44.757-40.88 50.303 8.675m-69.941 74.021c5.805 5.839 12.429 10.715 17.613 14.941-5.472 1.359-11.453 2.585-17.892 3.69a513 513 0 0 1 .279-18.631m-7.308-18.903c-4.502-4.936-8.72-9.747-12.396-14.315 5.78-3.55 11.476-6.934 16.639-9.249-1.708 7.648-3.116 15.507-4.243 23.564m8.152 8.082c1.493-12.801 3.498-25.164 6.518-36.654 11.01-4.698 22.155-8.648 33.444-11.796 9.272 6.4 18.739 14.63 28.313 23.858-1.048 10.073-3.364 22.08-6.333 35.085-11.002 4.933-22.643 8.992-34.69 12.495a343 343 0 0 1-27.252-22.988m75.826-16.795a290 290 0 0 1 11.714 13.81 177 177 0 0 1-15.834 8.709c1.665-7.244 3.005-14.78 4.12-22.519M145.358 88.96a231 231 0 0 1 18.573-3.185 190 190 0 0 1-.5 18.71c-5.857-5.534-11.875-10.724-18.073-15.525m-20.526-3.625c-6.979 2.207-13.976 4.738-20.991 7.56 1.633-5.227 3.557-10.765 5.755-16.596 5.153 2.679 10.222 5.734 15.236 9.035m-22.615-12.889c-3.849 8.38-6.82 16.717-8.963 25.014-8.336 3.891-16.511 8.466-24.555 13.602-27.071-42.584-11.09-58.56 33.518-38.616m-17.542 98.219c-51.035 2.69-56.623-19.754-17.846-48.161a242 242 0 0 0 18.203 20.738c-.597 9.42-.71 18.914-.357 27.423m9.098 7.24c8.499-.891 17.105-2.949 26.104-5.146 7.874 5.504 15.746 10.422 23.616 14.281-22.049 44.585-45.098 39.574-49.72-9.135m53.027 1.684c-5.493-2.712-10.92-6.073-16.298-9.905 7.949-2.675 15.576-5.401 22.758-8.197a126 126 0 0 1-6.46 18.102m7.52 3.552c3.738-8.925 6.715-17.68 9.006-26.281q11.888-5.3 23.389-12.682c28.638 43.303 10.204 57.86-32.395 38.963m34.486-50.483c-5.12-6.792-10.963-13.64-17.381-20.534.737-9.072.956-18.18.658-27.28 46.98-2.399 57.766 16.921 16.723 47.814"/></svg>
